share/icons/Flat-Remix-Blue-Dark/mimetypes/scalable/application-json.svg

<svg xmlns="http://www.w3.org/2000/svg" xmlns:xlink="http://www.w3.org/1999/xlink" width="36pt" height="36pt" version="1.1" viewBox="0 0 36 36"> <defs> <clipPath id="clip1"> <path d="M 20 2 L 31 2 L 31 13 L 20 13 Z M 20 2"/> </clipPath> <clipPath id="clip2"> <path d="M 20.515625 2.625 L 30.328125 12.4375 L 22.023438 12.4375 C 21.292969 12.4375 20.515625 11.660156 20.515625 10.929688 Z M 20.515625 2.625"/> </clipPath> <image id="image6" width="36" height="36" xlink:href="data:image/png;base64,iVBORw0KGgoAAAANSUhEUgAAACQAAAAkCAYAAADhAJiYAAAABmJLR0QA/wD/AP+gvaeTAAAAmklEQVRYhe3T0QqCQBBG4aOtYEoUvf9Lildltl00C4tkbBeTIP+BAUEYP1YW1Pcqh53B9kbgaVPcwQF0tAmGSrMZ6AKcDQXw+AUVHEAtcAUaewYYgYmC3+cBCkAPnDJQMcoDVNnebgEqQnmAclTz4d0I3P4JStc9AjXvk4qLWQV53LLeEOl05gw4A3dgcPiuUkoppZRSSqk99gLWvSJpuDnlsAAAAABJRU5ErkJggg=="/> </defs> <g> <path style="fill:rgb(97.254%,87.058%,40.784%)" d="M 7.347656 3.152344 C 6.675781 3.152344 6.042969 3.785156 6.042969 4.457031 L 6.042969 31.847656 C 6.042969 32.480469 6.714844 33.152344 7.347656 33.152344 L 28.21875 33.152344 C 28.851562 33.152344 29.523438 32.480469 29.523438 31.847656 L 29.523438 11.632812 L 21.042969 3.152344 Z M 7.347656 3.152344"/> <g clip-path="url(#clip1)"> <g clip-path="url(#clip2)"> <use xlink:href="#image6"/> </g> </g> <path style="fill:rgb(98.039%,90.980%,58.431%)" d="M 21.042969 3.152344 L 29.523438 11.632812 L 22.347656 11.632812 C 21.714844 11.632812 21.042969 10.960938 21.042969 10.328125 Z M 21.042969 3.152344"/> <path style="fill-rule:evenodd;fill:rgb(100.000%,100.000%,100.000%)" d="M 18 14.125 C 14.34375 14.125 11.21875 16.804688 11.21875 20.421875 C 11.21875 23.570312 13.476562 25.933594 15.890625 26.71875 C 14.285156 25.632812 12.8125 23.570312 12.8125 21.210938 C 12.8125 18.488281 14.808594 16.484375 17.128906 16.484375 C 19.296875 16.484375 20.785156 18.523438 20.792969 20.421875 C 20.792969 21.753906 19.683594 22.851562 18.796875 23.570312 C 20.394531 23.570312 22.386719 22.265625 22.386719 19.636719 C 22.386719 17.273438 20.394531 14.125 18 14.125 Z M 18 14.125"/> <path style="fill-rule:evenodd;fill:rgb(100.000%,100.000%,100.000%)" d="M 18 26.71875 C 21.65625 26.71875 24.78125 24.039062 24.78125 20.421875 C 24.78125 17.273438 22.523438 14.910156 20.109375 14.125 C 21.714844 15.210938 23.1875 17.273438 23.1875 19.636719 C 23.1875 22.355469 21.191406 24.355469 18.871094 24.355469 C 16.703125 24.355469 15.214844 22.320312 15.207031 20.421875 C 15.207031 19.089844 16.316406 17.992188 17.203125 17.273438 C 15.605469 17.273438 13.613281 18.578125 13.613281 21.207031 C 13.613281 23.570312 15.605469 26.71875 18 26.71875 Z M 18 26.71875"/> </g> </svg>

<svg width="36pt" height="36pt" version="1.1" viewBox="0 0 36 36" xmlns="http://www.w3.org/2000/svg"><defs><filter id="a" x="-.192" y="-.192" width="1.384" height="1.384" color-interpolation-filters="sRGB"><feGaussianBlur stdDeviation="0.67843748"/></filter></defs><path d="m7.3477 3.9022c-0.67188 0-1.3047 0.63281-1.3047 1.3047v27.391c0 0.63281 0.67188 1.3047 1.3047 1.3047h20.871c0.63281 0 1.3047-0.67188 1.3047-1.3047v-20.215l-8.4805-8.4805z" opacity=".3"/><path d="m7.3477 3.1523c-0.67188 0-1.3047 0.63281-1.3047 1.3047v27.391c0 0.63281 0.67188 1.3047 1.3047 1.3047h20.871c0.63281 0 1.3047-0.67188 1.3047-1.3047v-20.215l-8.4805-8.4805z" fill="#f7dd67"/><path d="m20.668 3.5272 8.4805 8.4805h-7.1758c-0.63281 0-1.3047-0.67187-1.3047-1.3047z" filter="url(#a)" opacity=".2"/><path d="m21.043 3.1523 8.4805 8.4805h-7.1758c-0.63281 0-1.3047-0.67187-1.3047-1.3047z" fill="#f9e794"/><path d="m18 14.125c-3.6562 0-6.7812 2.6797-6.7812 6.2969 0 3.1484 2.2578 5.5117 4.6719 6.2969-1.6055-1.0859-3.0781-3.1484-3.0781-5.5078 0-2.7227 1.9961-4.7266 4.3164-4.7266 2.168 0 3.6562 2.0391 3.6641 3.9375 0 1.332-1.1094 2.4297-1.9961 3.1484 1.5977 0 3.5898-1.3047 3.5898-3.9336 0-2.3633-1.9922-5.5117-4.3867-5.5117z" fill="#fff" fill-rule="evenodd"/><path d="m18 26.719c3.6562 0 6.7812-2.6797 6.7812-6.2969 0-3.1484-2.2578-5.5117-4.6719-6.2969 1.6055 1.0859 3.0781 3.1484 3.0781 5.5117 0 2.7188-1.9961 4.7188-4.3164 4.7188-2.168 0-3.6562-2.0352-3.6641-3.9336 0-1.332 1.1094-2.4297 1.9961-3.1484-1.5977 0-3.5898 1.3047-3.5898 3.9336 0 2.3633 1.9922 5.5117 4.3867 5.5117z" fill="#fff" fill-rule="evenodd"/></svg>
